X:1
T:Title
%%score { ( 1 4 ) | ( 2 3 5 ) }
L:1/8
M:4/4
K:F
V:1 treble nm="Grand Piano"
V:4 treble 
V:2 treble 
V:3 treble 
V:5 treble 
V:1
 z8[Q:1/4=104] | z2 [B,EG]>[B,EG] [A,F]2[K:bass] F,>A, | z2 c>c c2 c>c | d2 c2 B2 A2 | c2 E4 E>G | %5
 d6 z2 |[M:3/4] z2 d>d d2 |[M:1/4] d>f |[M:4/4] e2 d2 [FA]2 [GB]2 | [CFA]2 [CAc]4 z2 | %10
 z2 [B,EG]>[B,EG] [A,F]2[K:bass] F,>A, | z2 c>c c2 c>c | [^Fd]2 [Fc]2 [FB]2 A2 | G2 d4 =B,>C | %14
 z2 d>d d2 C>D | E2 [Gc]>[Gd] e2 d>e | f2 c2 B2 A2 |[M:3/4] [EG]4 F2 |[M:1/4] F2 | %19
[M:4/4] d2 [Bd]->[FB-d-] [FBd]2 e>d | z2 [Ac]4 z2 | C->[C-^FA] [C-GB]>[C-Ac] [CGB]>[Bd] [Ac]>[GB] | %22
[M:3/4] A2 c4 |[M:1/4] F2 |[M:4/4] z2 [Bd]4 z2 | z2 [Ac]4 z2 | z2 c2 c2 z2 |[M:3/4] F2 F4 |] %28
V:2
 z4 z2 F>A | c6[K:bass] z2 | z2[K:treble] [B,EG]>[B,EG] [A,F]2 [F,A,F]>[F,A,F] | %3
 [F,A,F]2 [F,A,F]2 [F,CG]2 [F,CF]2 | [G,B,E]2 [G,B,C]4 C>E | B6[K:bass] z2 | %6
[M:3/4] z2[K:treble] [GB]>[GB] [GB]2 |[M:1/4] [B,DGB]>[B,DGB] | %8
[M:4/4] [CGB]2 [CEB]2[K:bass] [C,C]2 [C,C]2 | F,2 F,4[K:treble] F>A | c6[K:bass] z2 | %11
 z2[K:treble] [B,EG]>[B,EG] [A,F]2 [F,A,F]>[F,A,F] | [D,A,]2 [D,A,]2 [D,D]2 [D,CD]2 | %13
 [G,B,D]2[K:treble] [G,B,G]4 G,>A, | z2 [FG]>[FG] [FG]2 A,>=B, | z2 E4 z2 | %16
 [A,CF]2 [A,CF]2[K:bass] [G,CE]2 [F,CF]2 |[M:3/4] [C,B,]4 [F,A,]2 |[M:1/4] z2 | %19
[M:4/4][K:treble] B2[K:bass] [B,,B,]>[B,,B,] [B,,B,]2[K:treble] c>B | %20
 A2[K:bass] [F,CF]>[F,C] [F,C]2 [F,C]>F, | C,>C, C,>C, C,>[C,C] [C,C]>[C,C] | %22
[M:3/4] [F,CF]2 [F,A,F]4 |[M:1/4] z2 | %24
[M:4/4][K:treble] B2[K:bass] [B,,B,]>[B,,B,] [B,,B,]2[K:treble] c>B | A2[K:bass] F,>F, F,2 F,>F, | %26
 z z/[K:treble] d/[K:bass] [C,B,]2 [C,G,]2 [C,B,C]2 |[M:3/4] [F,A,C]2 [F,A,C]4 |] %28
V:3
 x8 | z2[K:bass] C,>C, F,2 z2 | x2[K:treble] x6 | x8 | x8 | z2[K:bass] [C,C]>[C,C] [C,C]2 E,>G, | %6
[M:3/4] B,6[K:treble] |[M:1/4] x2 |[M:4/4] x4[K:bass] x4 | x6[K:treble] x2 | %10
 z2[K:bass] C,>C, F,2 z2 | x2[K:treble] x6 | x8 | x2[K:treble] x6 | =B,6 z2 | %15
 z2 z z/ F/ G2 [B,CG]>[B,CG] | x4[K:bass] x4 |[M:3/4] x6 |[M:1/4] x2 | %19
[M:4/4][K:treble] x2[K:bass] x4[K:treble] x2 | x2[K:bass] x6 | x8 |[M:3/4] x6 |[M:1/4] x2 | %24
[M:4/4][K:treble] x2[K:bass] x4[K:treble] x2 | x2[K:bass] x6 | C,2[K:treble][K:bass] z2 z4 | %27
[M:3/4] x6 |] %28
V:4
 x8 | x6[K:bass] x2 | C6 z2 | x8 | x8 | z2 E>E E2 G,>B, |[M:3/4] D6 |[M:1/4] x2 |[M:4/4] x8 | x8 | %10
 x6[K:bass] x2 | C6 z2 | x8 | x8 | D6 z2 | x8 | x8 |[M:3/4] x6 |[M:1/4] x2 |[M:4/4] z2 F2 z4 | %20
 c2 z z/ F/ F2 [Bd]>[CAc] | [GB]2 z2 z4 |[M:3/4] x6 |[M:1/4] x2 |[M:4/4] d2 F>F F2 e>d | %25
 c2 [CF]>[CF] [CF]2 [CFA]>[CFA] | [CEc]2 E->[Ed] E->[EB] A>G |[M:3/4] x6 |] %28
V:5
 x8 | x2[K:bass] x6 | x2[K:treble] x6 | x8 | x8 | x2[K:bass] x6 |[M:3/4] x2[K:treble] x4 | %7
[M:1/4] x2 |[M:4/4] x4[K:bass] x4 | x6[K:treble] x2 | x2[K:bass] x6 | x2[K:treble] x6 | x8 | %13
 x2[K:treble] x6 | x8 | C6 z2 | x4[K:bass] x4 |[M:3/4] x6 |[M:1/4] x2 | %19
[M:4/4][K:treble] x2[K:bass] x4[K:treble] x2 | x2[K:bass] x6 | x8 |[M:3/4] x6 |[M:1/4] x2 | %24
[M:4/4][K:treble] x2[K:bass] x4[K:treble] x2 | x2[K:bass] x6 | x3/2[K:treble] x/[K:bass] x6 | %27
[M:3/4] x6 |] %28

